X: 7980
T:Untitled reel
R:Reel
O:England
M:C|
A:Westmorland
N:P25(1st) 2/2
K:D
f/2e/2|fddA B/2c/2d dA|BGdF E/2E/2E Ee|\
fddA B/2c/2d dB|AFdF D/2D/2D D2:|
|:D/2E/2|FDdD FDBD|AFdF E/2E/2E EG|\
FDdD FDBD|BdAF D/2D/2D Dd/2e/2|\
fdaf ecAc|dAdF E/2E/2E Ee|\
fdgf ecAc|BdAF D/2D/2D D2:|
